X:1967
T:Annan Minnon Peja - Stämma
C:Anton Teljebäck
Z:Anton Teljebäck
M:4/4
L:1/4
K:Dm
|:(A, | D2) A,2 | D2 A,2 | D2 A,2 | D2 A,2 | 
DE D2 |DE F2 | D2 A,2 | E2 A,2 | 
DE D2 |DE F2 | D2 A,2 | D4 :|
|: F/D/A,/D/ F/D/A,/D/ | FB AG | FE DC | B,A, G,A, |
F/D/A,/D/ F/D/A,/D/ | FB AG | FE D^C | D2 D2 :|

(:musicend:)
(:music:)
